src/apps_banggood.svg

<?xml version="1.0" encoding="UTF-8" standalone="no"?>
<svg
   xmlns:dc="http://purl.org/dc/elements/1.1/"
   xmlns:cc="http://creativecommons.org/ns#"
   xmlns:rdf="http://www.w3.org/1999/02/22-rdf-syntax-ns#"
   xmlns:svg="http://www.w3.org/2000/svg"
   xmlns="http://www.w3.org/2000/svg"
   xmlns:sodipodi="http://sodipodi.sourceforge.net/DTD/sodipodi-0.dtd"
   xmlns:inkscape="http://www.inkscape.org/namespaces/inkscape"
   width="192"
   height="192"
   version="1"
   id="svg14"
   sodipodi:docname="apps_banggood.svg"
   inkscape:version="0.92.3 (2405546, 2018-03-11)">
  <metadata
     id="metadata20">
    <rdf:RDF>
      <cc:Work
         rdf:about="">
        <dc:format>image/svg+xml</dc:format>
        <dc:type
           rdf:resource="http://purl.org/dc/dcmitype/StillImage" />
        <dc:title></dc:title>
      </cc:Work>
    </rdf:RDF>
  </metadata>
  <defs
     id="defs18">
    <filter
       inkscape:collect="always"
       style="color-interpolation-filters:sRGB"
       id="filter850"
       x="-0.048"
       width="1.096"
       y="-0.048"
       height="1.096">
      <feGaussianBlur
         inkscape:collect="always"
         stdDeviation="3.2"
         id="feGaussianBlur852" />
    </filter>
    <filter
       inkscape:collect="always"
       style="color-interpolation-filters:sRGB"
       id="filter891"
       x="-0.043531376"
       width="1.0870628"
       y="-0.053491009"
       height="1.106982">
      <feGaussianBlur
         inkscape:collect="always"
         stdDeviation="2.2543014"
         id="feGaussianBlur893" />
    </filter>
  </defs>
  <sodipodi:namedview
     pagecolor="#ffffff"
     bordercolor="#666666"
     borderopacity="1"
     objecttolerance="10"
     gridtolerance="10"
     guidetolerance="10"
     inkscape:pageopacity="0"
     inkscape:pageshadow="2"
     inkscape:window-width="1920"
     inkscape:window-height="1018"
     id="namedview16"
     showgrid="false"
     inkscape:zoom="1.07"
     inkscape:cx="83.646552"
     inkscape:cy="96"
     inkscape:window-x="0"
     inkscape:window-y="32"
     inkscape:window-maximized="1"
     inkscape:current-layer="svg14" />
  <rect
     width="160"
     height="160"
     x="-180"
     y="-176"
     rx="8"
     ry="8"
     transform="matrix(0,-1,-1,0,0,0)"
     id="rect832"
     style="opacity:0.2;fill:#000000;stroke-width:4;filter:url(#filter850)" />
  <rect
     style="fill:#f98917;fill-opacity:1;stroke-width:4"
     id="rect2"
     transform="matrix(0,-1,-1,0,0,0)"
     ry="8"
     rx="8"
     y="-176"
     x="-176"
     height="160"
     width="160" />
  <path
     inkscape:connector-curvature="0"
     style="opacity:0.2;fill:#ffffff;stroke-width:4"
     d="m 24,16 c -4.432,0 -8,3.568 -8,8 v 1 c 0,-4.432 3.568,-8 8,-8 h 144 c 4.432,0 8,3.568 8,8 v -1 c 0,-4.432 -3.568,-8 -8,-8 z"
     id="path4" />
  <path
     id="path865"
     d="m 38.265625,47.855469 -4.464844,8.949219 c 7.48528,3.734729 10.78365,5.017066 11.580078,5.708984 0.398214,0.345959 0.667605,0.652524 1.310547,2.072266 0.642943,1.41974 1.494958,3.788328 2.753906,7.292968 l 15.181641,42.685544 c 0.737393,2.54664 1.454707,4.65754 2.513672,6.58594 1.086136,1.97788 2.712851,3.81331 4.740234,4.93555 4.054767,2.24449 7.986489,1.89453 13.570313,1.89453 h 52.017578 l 3.5,-10 H 85.451172 c -5.566638,0 -8.244734,-0.37782 -8.726563,-0.64453 -0.240914,-0.13336 -0.364953,-0.17434 -0.818359,-1 -0.453406,-0.82566 -1.054972,-2.39519 -1.724609,-4.72461 -0.02888,-0.0986 -0.0608,-0.19632 -0.0957,-0.29297 L 58.861328,68.513672 c -0.0013,-0.0052 -0.0026,-0.01041 -0.0039,-0.01563 -1.250816,-3.48198 -2.10314,-5.931596 -3.056641,-8.037109 C 54.84728,58.355423 53.62622,56.430258 51.939459,54.964839 48.565938,52.034002 45.315505,51.37295 38.265631,47.855464 Z M 64.716797,67 68.287109,77 h 77.603511 l -9.28515,25 H 77.212891 l 3.570312,10 h 59.298827 c 2.09023,-1e-4 3.95987,-1.30028 4.6875,-3.25977 l 13,-34.999996 C 158.9816,70.474033 156.56588,67.000421 153.08203,67 Z M 77,133 a 8,8 0 0 0 -8,8 8,8 0 0 0 8,8 8,8 0 0 0 8,-8 8,8 0 0 0 -8,-8 z m 53,0 a 8,8 0 0 0 -8,8 8,8 0 0 0 8,8 8,8 0 0 0 8,-8 8,8 0 0 0 -8,-8 z"
     style="color:#000000;font-style:normal;font-variant:normal;font-weight:normal;font-stretch:normal;font-size:medium;line-height:normal;font-family:sans-serif;font-variant-ligatures:normal;font-variant-position:normal;font-variant-caps:normal;font-variant-numeric:normal;font-variant-alternates:normal;font-feature-settings:normal;text-indent:0;text-align:start;text-decoration:none;text-decoration-line:none;text-decoration-style:solid;text-decoration-color:#000000;letter-spacing:normal;word-spacing:normal;text-transform:none;writing-mode:lr-tb;direction:ltr;text-orientation:mixed;dominant-baseline:auto;baseline-shift:baseline;text-anchor:start;white-space:normal;shape-padding:0;clip-rule:nonzero;display:inline;overflow:visible;visibility:visible;opacity:0.2;isolation:auto;mix-blend-mode:normal;color-interpolation:sRGB;color-interpolation-filters:linearRGB;solid-color:#000000;solid-opacity:1;vector-effect:none;fill:#000000;fill-opacity:1;fill-rule:nonzero;stroke:none;stroke-width:10;stroke-linecap:butt;stroke-linejoin:round;stroke-miterlimit:4;stroke-dasharray:none;stroke-dashoffset:0;stroke-opacity:1;filter:url(#filter891);color-rendering:auto;image-rendering:auto;shape-rendering:auto;text-rendering:auto;enable-background:accumulate"
     inkscape:connector-curvature="0" />
  <path
     inkscape:connector-curvature="0"
     style="color:#000000;font-style:normal;font-variant:normal;font-weight:normal;font-stretch:normal;font-size:medium;line-height:normal;font-family:sans-serif;font-variant-ligatures:normal;font-variant-position:normal;font-variant-caps:normal;font-variant-numeric:normal;font-variant-alternates:normal;font-feature-settings:normal;text-indent:0;text-align:start;text-decoration:none;text-decoration-line:none;text-decoration-style:solid;text-decoration-color:#000000;letter-spacing:normal;word-spacing:normal;text-transform:none;writing-mode:lr-tb;direction:ltr;text-orientation:mixed;dominant-baseline:auto;baseline-shift:baseline;text-anchor:start;white-space:normal;shape-padding:0;clip-rule:nonzero;display:inline;overflow:visible;visibility:visible;opacity:1;isolation:auto;mix-blend-mode:normal;color-interpolation:sRGB;color-interpolation-filters:linearRGB;solid-color:#000000;solid-opacity:1;vector-effect:none;fill:#ffffff;fill-opacity:1;fill-rule:nonzero;stroke:none;stroke-width:10;stroke-linecap:butt;stroke-linejoin:round;stroke-miterlimit:4;stroke-dasharray:none;stroke-dashoffset:0;stroke-opacity:1;color-rendering:auto;image-rendering:auto;shape-rendering:auto;text-rendering:auto;enable-background:accumulate"
     d="m 38.265625,45.855469 -4.464844,8.949219 c 7.48528,3.734729 10.78365,5.017066 11.580078,5.708984 0.398214,0.345959 0.667605,0.652524 1.310547,2.072266 0.642943,1.41974 1.494958,3.788328 2.753906,7.292968 l 15.181641,42.685544 c 0.737393,2.54664 1.454707,4.65754 2.513672,6.58594 1.086136,1.97788 2.712851,3.81331 4.740234,4.93555 4.054767,2.24449 7.986489,1.89453 13.570313,1.89453 h 52.017578 l 3.5,-10 H 85.451172 c -5.566638,0 -8.244734,-0.37782 -8.726563,-0.64453 -0.240914,-0.13336 -0.364953,-0.17434 -0.818359,-1 -0.453406,-0.82566 -1.054972,-2.39519 -1.724609,-4.72461 -0.02888,-0.0986 -0.0608,-0.19632 -0.0957,-0.29297 L 58.861328,66.513672 c -0.0013,-0.0052 -0.0026,-0.01041 -0.0039,-0.01563 -1.250816,-3.48198 -2.10314,-5.931596 -3.056641,-8.037109 C 54.84728,56.355423 53.62622,54.430258 51.939459,52.964839 48.565938,50.034002 45.315505,49.37295 38.265631,45.855464 Z M 64.716797,65 68.287109,75 h 77.603511 l -9.28515,25 H 77.212891 l 3.570312,10 h 59.298827 c 2.09023,-1e-4 3.95987,-1.30028 4.6875,-3.25977 l 13,-34.999996 C 158.9816,68.474033 156.56588,65.000421 153.08203,65 Z M 77,131 a 8,8 0 0 0 -8,8 8,8 0 0 0 8,8 8,8 0 0 0 8,-8 8,8 0 0 0 -8,-8 z m 53,0 a 8,8 0 0 0 -8,8 8,8 0 0 0 8,8 8,8 0 0 0 8,-8 8,8 0 0 0 -8,-8 z"
     id="path862" />
</svg>

<?xml version="1.0" encoding="UTF-8" standalone="no"?>
<svg
   xmlns:dc="http://purl.org/dc/elements/1.1/"
   xmlns:cc="http://creativecommons.org/ns#"
   xmlns:rdf="http://www.w3.org/1999/02/22-rdf-syntax-ns#"
   xmlns:svg="http://www.w3.org/2000/svg"
   xmlns="http://www.w3.org/2000/svg"
   xmlns:sodipodi="http://sodipodi.sourceforge.net/DTD/sodipodi-0.dtd"
   xmlns:inkscape="http://www.inkscape.org/namespaces/inkscape"
   width="192"
   height="192"
   version="1"
   id="svg14"
   sodipodi:docname="apps_banggood.svg"
   inkscape:version="0.92.3 (2405546, 2018-03-11)">
  <metadata
     id="metadata20">
    <rdf:RDF>
      <cc:Work
         rdf:about="">
        <dc:format>image/svg+xml</dc:format>
        <dc:type
           rdf:resource="http://purl.org/dc/dcmitype/StillImage" />
        <dc:title />
      </cc:Work>
    </rdf:RDF>
  </metadata>
  <defs
     id="defs18">
    <filter
       inkscape:collect="always"
       style="color-interpolation-filters:sRGB"
       id="filter850"
       x="-0.048"
       width="1.096"
       y="-0.048"
       height="1.096">
      <feGaussianBlur
         inkscape:collect="always"
         stdDeviation="3.2"
         id="feGaussianBlur852" />
    </filter>
    <filter
       inkscape:collect="always"
       style="color-interpolation-filters:sRGB"
       id="filter855"
       x="-0.04372448"
       width="1.087449"
       y="-0.053202291"
       height="1.1064046">
      <feGaussianBlur
         inkscape:collect="always"
         stdDeviation="2.2643014"
         id="feGaussianBlur857" />
    </filter>
  </defs>
  <sodipodi:namedview
     pagecolor="#ffffff"
     bordercolor="#666666"
     borderopacity="1"
     objecttolerance="10"
     gridtolerance="10"
     guidetolerance="10"
     inkscape:pageopacity="0"
     inkscape:pageshadow="2"
     inkscape:window-width="1920"
     inkscape:window-height="1018"
     id="namedview16"
     showgrid="false"
     inkscape:zoom="3.0603482"
     inkscape:cx="124.11676"
     inkscape:cy="96"
     inkscape:window-x="0"
     inkscape:window-y="32"
     inkscape:window-maximized="1"
     inkscape:current-layer="svg14" />
  <rect
     width="160"
     height="160"
     x="-180"
     y="-176"
     rx="8"
     ry="8"
     transform="matrix(0,-1,-1,0,0,0)"
     id="rect832"
     style="opacity:0.2;fill:#000000;stroke-width:4;filter:url(#filter850)" />
  <rect
     style="fill:#f98917;fill-opacity:1;stroke-width:4"
     id="rect2"
     transform="matrix(0,-1,-1,0,0,0)"
     ry="8"
     rx="8"
     y="-176"
     x="-176"
     height="160"
     width="160" />
  <path
     inkscape:connector-curvature="0"
     style="opacity:0.2;fill:#ffffff;stroke-width:4"
     d="m 24,16 c -4.432,0 -8,3.568 -8,8 v 1 c 0,-4.432 3.568,-8 8,-8 h 144 c 4.432,0 8,3.568 8,8 v -1 c 0,-4.432 -3.568,-8 -8,-8 z"
     id="path4" />
  <path
     id="path829"
     d="m 38.265625,47.855469 -4.464844,8.949219 c 7.48528,3.734729 10.78365,5.017066 11.580078,5.708984 0.398214,0.345959 0.667605,0.652524 1.310547,2.072266 0.642943,1.41974 1.494958,3.788328 2.753906,7.292968 l 15.181641,42.685544 c 0.737393,2.54664 1.454707,4.65754 2.513672,6.58594 1.086136,1.97788 2.712851,3.81331 4.740234,4.93555 4.054767,2.24449 7.986489,1.89453 13.570313,1.89453 h 52.017578 l 3.5,-10 H 85.451172 c -5.566638,0 -8.244734,-0.37782 -8.726563,-0.64453 -0.240914,-0.13336 -0.364953,-0.17434 -0.818359,-1 -0.453406,-0.82566 -1.054972,-2.39519 -1.724609,-4.72461 -0.02888,-0.0986 -0.0608,-0.19632 -0.0957,-0.29297 L 58.861328,68.513672 c -0.0013,-0.0052 -0.0026,-0.01041 -0.0039,-0.01563 -1.250816,-3.48198 -2.10314,-5.931596 -3.056641,-8.037109 -0.953507,-2.10551 -2.174567,-4.030675 -3.861328,-5.496094 -3.373521,-2.930837 -6.623954,-3.591889 -13.673828,-7.109375 z M 64.716797,66 68.287109,76 h 77.603511 l -9.28515,26 H 77.212891 l 3.570312,10 h 59.298827 c 2.09023,-1e-4 3.95987,-1.30028 4.6875,-3.25977 l 13,-35.999996 C 158.9816,69.474033 156.56588,66.000421 153.08203,66 Z M 78,134 a 8,8 0 0 0 -8,8 8,8 0 0 0 8,8 8,8 0 0 0 8,-8 8,8 0 0 0 -8,-8 z m 52,0 a 8,8 0 0 0 -8,8 8,8 0 0 0 8,8 8,8 0 0 0 8,-8 8,8 0 0 0 -8,-8 z"
     style="color:#000000;font-style:normal;font-variant:normal;font-weight:normal;font-stretch:normal;font-size:medium;line-height:normal;font-family:sans-serif;font-variant-ligatures:normal;font-variant-position:normal;font-variant-caps:normal;font-variant-numeric:normal;font-variant-alternates:normal;font-feature-settings:normal;text-indent:0;text-align:start;text-decoration:none;text-decoration-line:none;text-decoration-style:solid;text-decoration-color:#000000;letter-spacing:normal;word-spacing:normal;text-transform:none;writing-mode:lr-tb;direction:ltr;text-orientation:mixed;dominant-baseline:auto;baseline-shift:baseline;text-anchor:start;white-space:normal;shape-padding:0;clip-rule:nonzero;display:inline;overflow:visible;visibility:visible;opacity:0.2;isolation:auto;mix-blend-mode:normal;color-interpolation:sRGB;color-interpolation-filters:linearRGB;solid-color:#000000;solid-opacity:1;vector-effect:none;fill:#000000;fill-opacity:1;fill-rule:nonzero;stroke:none;stroke-width:10;stroke-linecap:butt;stroke-linejoin:round;stroke-miterlimit:4;stroke-dasharray:none;stroke-dashoffset:0;stroke-opacity:1;color-rendering:auto;image-rendering:auto;shape-rendering:auto;text-rendering:auto;enable-background:accumulate;filter:url(#filter855)"
     inkscape:connector-curvature="0" />
  <path
     style="color:#000000;font-style:normal;font-variant:normal;font-weight:normal;font-stretch:normal;font-size:medium;line-height:normal;font-family:sans-serif;font-variant-ligatures:normal;font-variant-position:normal;font-variant-caps:normal;font-variant-numeric:normal;font-variant-alternates:normal;font-feature-settings:normal;text-indent:0;text-align:start;text-decoration:none;text-decoration-line:none;text-decoration-style:solid;text-decoration-color:#000000;letter-spacing:normal;word-spacing:normal;text-transform:none;writing-mode:lr-tb;direction:ltr;text-orientation:mixed;dominant-baseline:auto;baseline-shift:baseline;text-anchor:start;white-space:normal;shape-padding:0;clip-rule:nonzero;display:inline;overflow:visible;visibility:visible;opacity:1;isolation:auto;mix-blend-mode:normal;color-interpolation:sRGB;color-interpolation-filters:linearRGB;solid-color:#000000;solid-opacity:1;vector-effect:none;fill:#ffffff;fill-opacity:1;fill-rule:nonzero;stroke:none;stroke-width:10;stroke-linecap:butt;stroke-linejoin:round;stroke-miterlimit:4;stroke-dasharray:none;stroke-dashoffset:0;stroke-opacity:1;color-rendering:auto;image-rendering:auto;shape-rendering:auto;text-rendering:auto;enable-background:accumulate"
     d="M 38.265625 45.855469 L 33.800781 54.804688 C 41.286061 58.539417 44.584431 59.821754 45.380859 60.513672 C 45.779073 60.859631 46.048464 61.166196 46.691406 62.585938 C 47.334349 64.005678 48.186364 66.374266 49.445312 69.878906 L 64.626953 112.56445 C 65.364346 115.11109 66.08166 117.22199 67.140625 119.15039 C 68.226761 121.12827 69.853476 122.9637 71.880859 124.08594 C 75.935626 126.33043 79.867348 125.98047 85.451172 125.98047 L 137.46875 125.98047 L 140.96875 115.98047 L 85.451172 115.98047 C 79.884534 115.98047 77.206438 115.60265 76.724609 115.33594 C 76.483695 115.20258 76.359656 115.1616 75.90625 114.33594 C 75.452844 113.51028 74.851278 111.94075 74.181641 109.61133 C 74.152761 109.51273 74.120837 109.41501 74.085938 109.31836 L 58.861328 66.513672 C 58.860028 66.508472 58.858722 66.503267 58.857422 66.498047 C 57.606606 63.016067 56.754282 60.566451 55.800781 58.460938 C 54.847274 56.355428 53.626214 54.430263 51.939453 52.964844 C 48.565932 50.034007 45.315499 49.372955 38.265625 45.855469 z M 64.716797 64 L 68.287109 74 L 145.89062 74 L 136.60547 100 L 77.212891 100 L 80.783203 110 L 140.08203 110 C 142.17226 109.9999 144.0419 108.69972 144.76953 106.74023 L 157.76953 70.740234 C 158.9816 67.474033 156.56588 64.000421 153.08203 64 L 64.716797 64 z M 78 132 A 8 8 0 0 0 70 140 A 8 8 0 0 0 78 148 A 8 8 0 0 0 86 140 A 8 8 0 0 0 78 132 z M 130 132 A 8 8 0 0 0 122 140 A 8 8 0 0 0 130 148 A 8 8 0 0 0 138 140 A 8 8 0 0 0 130 132 z "
     id="path826" />
</svg>
